X:1
T:Title
%%score { ( 1 3 5 ) | ( 2 4 ) }
L:1/8
Q:1/4=108
M:4/4
K:C
V:1 treble nm="Grand Piano"
V:3 treble 
V:5 treble 
V:2 bass 
V:4 bass 
V:1
 E2 C>E G2 E>G | c2 e>d [Ec]4 | [Ge]2 [Ge]>[Fd] [Ec]2 [GB]>A | G2 G>F E4 | E2 C>E G2 E>G | %5
w: Adam~Geibel * * * * *|||||
 c2 e>d c4 | [^Fc]2 [DFB]>[DFA] [DGd]2 [DGB]>[CEA] | [B,DG]2 [CDA]>[A,C^F] [B,DG]4 | %8
w: |||
 [B,FG]2 [DFB]>[Fd] [Ec]2 [EG]>[EG] | G2 B>d [Ec]4 | E2 ^G>B [CA]2 [Ec]>[Ec] | %11
w: |||
 [^Fe]2 [Fd]>[Fe] d4 | e2 d>B c2 z2 | [Ec]2 [E_B]>[EG] [FA]2 z2 | [Af]2 [Ae]>[Ad] [Gc]2 [Ec]>[Ad] | %15
w: ||||
 [Ge]2 [Fd]2 [CEc]4 | G6 z2 | G6 z2 | [G,EG]2 [EA]2 [EB]2 [Ec]2 | [Fc]4 [FB]2 z2 | %20
w: |||||
 z2 F2 z z/ B/ c>d | z2 F2 z z/ B/ c>d | G2 B2 c2 d2 | [Fd]4 [Ec]2 z2 | G6 z2 | G6 z2 | %26
w: ||||||
 [EG]2 [Ge]2 [Gd]2 [Gc]2 | [GB]4 A2 z2 | z2 F2 z z/ B/ c>d | G6 z2 | e2 f2 d2 e2 | [Ec]6 z2 |] %32
w: ||||||
V:2
 E,2 C,>E, G,2 E,>G, | C2 [G,B,G]>[G,B,F][K:bass] [C,C]4 | [C,C]2 [C,C]>[C,C] [C,C]2 [F,C]>[F,CF] | %3
 [G,CE]2 [G,B,D]>[G,D] [C,G,C]4 | E,2 C,>E, G,2 E,>G, | C2 [G,B,G]>[G,B,F][K:bass] [A,CE]4 | %6
 [D,A,]2 D,>C, B,,2 B,,>C, | D,2 D,>D, G,,4 | G,2 G,>[G,B,] [C,C]2 [C,C]>[C,C] | %9
 [G,B,F]2 [G,DF]>[G,B,F][K:bass] [C,C]4 | [E,^G,D]2 [E,B,D]>[E,G,D] [A,,A,]2 [A,,A,]>[A,,A,] | %11
 [D,A,]2 [D,C]>[D,C][K:treble] [G,B,G]4 | [CG]2 [G,B,F]>[G,DF] [A,CE]2 z2 | %13
 [C,C]2 [C,C]>[C,C] [F,C]2 z2 | [D,D]2 [E,^C]>[F,D] [G,E]2 [A,=C]>[F,C] | [G,C]2 [G,B,]2 C,4 | %16
 C,2 C,2 z z/[K:treble] A/ B>c | C,2 C,2 z z/[K:treble] A/ B>c | C,2 [C,G,]2 [C,G,]2 [C,G,]2 | %19
 [D,G,]4 [D,G,]2 z2 | [G,B,F]2 [G,B,]2 [G,B,]2 z2 | [G,B,F]2 [G,B,]2 [G,B,]2 z2 | %22
 [G,B,F]2 [G,DF]2 [G,CF]2 [G,B,F]2 | [C,C]4 [C,C]2 z2 | C,2 C,2 z z/[K:treble] A/ B>c | %25
 C,2 C,2 z z/[K:treble] A/ B>c | [C,C]2 [C,C]2 [D,B,]2 [E,C]2 | [F,C]4 [F,CF]2 z2 | %28
 [F,CF]2 [F,C]2 [F,C]2 z2 | [G,CE]2 [G,C]2 [G,C]2 z2 | [G,CG]2 [G,CA]2 [G,B,F]2 [G,B,G]2 | %31
 [C,C]6 z2 |] %32
V:3
 x8 | x8 | x8 | x8 | x8 | x8 | x8 | x8 | x8 | x8 | x8 | x8 | x8 | x8 | x8 | x8 | %16
 [G,E]2 [G,E]2 [G,E]2 z2 | [G,E]2 [G,E]2 [G,E]2 z2 | x8 | x8 | G6 z2 | G6 z2 | x8 | x8 | %24
 [G,E]2 [G,E]2 [G,E]2 z2 | [G,E]2 [G,E]2 [G,E]2 z2 | x8 | x8 | A6 z2 | z2 E2 E>E G>c | x8 | x8 |] %32
V:4
 x8 | x4[K:bass] x4 | x8 | x8 | x8 | x4[K:bass] x4 | x8 | x8 | x8 | x4[K:bass] x4 | x8 | %11
 x4[K:treble] x4 | x8 | x8 | x8 | x8 | z4 C,2[K:treble] z2 | z4 C,2[K:treble] z2 | x8 | x8 | x8 | %21
 x8 | x8 | x8 | z4 C,2[K:treble] z2 | z4 C,2[K:treble] z2 | x8 | x8 | x8 | x8 | x8 | x8 |] %32
V:5
 x8 | x8 | x8 | x8 | x8 | x8 | x8 | x8 | x8 | x8 | x8 | x8 | x8 | x8 | x8 | x8 | x8 | x8 | x8 | %19
 x8 | z4 F2 z2 | z4 F2 z2 | x8 | x8 | x8 | x8 | x8 | x8 | z4 F2 z2 | x8 | x8 | x8 |] %32

